!!!COM:	Bach, Johann Sebastian
!!!CDT:	1685/02/21/-1750/07/28/
!!!OTL@@DE:	Es woll' uns Gott gen&auml;dig sein
!!!SCT:	BWV 311
!!!PC#:	16
!!!AGN:	chorale
**kern	**kern	**kern	**kern
*ICvox	*ICvox	*ICvox	*ICvox
*Ibass	*Itenor	*Ialto	*Isoprn
*I"Bass	*I"Tenor	*I"Alto	*I"Soprano
*>[A,A,B]	*>[A,A,B]	*>[A,A,B]	*>[A,A,B]
*>norep[A,B]	*>norep[A,B]	*>norep[A,B]	*>norep[A,B]
*>A	*>A	*>A	*>A
*clefF4	*clefGv2	*clefG2	*clefG2
*k[f#c#]	*k[f#c#]	*k[f#c#]	*k[f#c#]
*b:	*b:	*b:	*b:
*M4/4	*M4/4	*M4/4	*M4/4
*met(c)	*met(c)	*met(c)	*met(c)
*MM100	*MM100	*MM100	*MM100
4F#	4A#	4f#	4cc#
=1	=1	=1	=1
4B	4B	4f#	4dd
4AnX	8c#L	4f#	4cc#
.	8dJ	.	.
4G	4e	4g	4b
4F#	4A	4a	8cc#L
.	.	.	8ddJ
=2	=2	=2	=2
4E	8BL	4g	4ee
.	8c#J	.	.
4D	4d	8f#L	4ff#
.	.	8g#J	.
4C#	4e	4a#	4ee
4BB	4f#	4b	4dd
=3	=3	=3	=3
2F#;	2f#;	2a#;	2cc#;
4r	4ry	4ry	4r
4A#	4f#	4cc#	4ee
=4	=4	=4	=4
4B	4f#	8bL	4dd
.	.	8anXJ	.
4E	4e	4g	4cc#
4F#	4d	4a	4dd
4G	4d	8gL	4b
.	.	8f#J	.
=5	=5	=5	=5
4C#	4e	4e	4a
4D	8AL	8dL	8f#L
.	8BJ	8eJ	8gJ
4D#	4c	4f#	4a
4E	4B	8eL	4g
.	.	8dnXJ	.
=6	=6	=6	=6
2.F#;	2.A#;	2.c#;	2.f#;
=:|!	=:|!	=:|!	=:|!
*>B	*>B	*>B	*>B
4F#	4AnX	4c#	4a
=7	=7	=7	=7
8BBL	4B	4d	4g
8C#J	.	.	.
4D	4A	4d	4f#
4AA	8AL	4c#	4e
.	8GJ	.	.
4AA#	4F#	4c#	4f#
=8	=8	=8	=8
4BB	4F#	8dL	4d
.	.	8c#J	.
4GG	4B	4B	4e
4FF#;	4A#;	4c#;	4f#;
4F#	4A#	4f#	4cc#
=9	=9	=9	=9
4B	4B	8f#L	4dd
.	.	8g#J	.
4c#	4e	4a#	4cc#
4d	4f#	4b	4b
8c#L	8eL	8a#L	8cc#L
8BJ	8dJ	8bJ	8ddJ
=10	=10	=10	=10
4A#	4c#	8cc#L	4ee
.	.	8f#J	.
4B	4B	4f#	4dd
4F#;	4A#;	4f#;	4cc#;
4D#	4B	4anX	4ff#
=11	=11	=11	=11
4E	4B	4g#	8eeL
.	.	.	8dd
4F#	4AnX	4a	8cc#
.	.	.	8ddJ
8G#L	8BL	4e	4ee
8F#	8AJ	.	.
8E	4G#	4e	4b
8DJ	.	.	.
=12	=12	=12	=12
8C#L	4A	8eL	4a
8BB	.	8d	.
8C#	4A	8e	4gnX
8AAJ	.	8c#J	.
4D;	4A;	4d;	4f#;
8AL	4A	4c#	4e
8G#J	.	.	.
=13	=13	=13	=13
4F#	4A	8c#L	4a
.	.	8d#J	.
8EL	4G#	4e	4b
8DnXJ	.	.	.
8C#L	8A#L	8eL	8cc#L
8BBJ	8BJ	8f#J	8ddJ
4AA#X	[4c#	8gL	4ee
.	.	8f#J	.
=14	=14	=14	=14
4BB	8c#L]	8f#L	4dd
.	8BJ	8g#J	.
8C#L	4e	4a	4cc#
8D#J	.	.	.
4E;	4e;	4g#;	4b;
8F#L	8AL	4f#	4dd
8G#J	8BJ	.	.
=15	=15	=15	=15
4A	4c#	8eL	4cc#
.	.	8f#J	.
8BL	4d	4gnX	4b
8c#J	.	.	.
4d	4d	8f#L	8aL
.	.	8eJ	8gJ
4D	4A	4d	8f#L
.	.	.	8gJ
=16	=16	=16	=16
4C	4A	[2e	4a
4BB	4B	.	4g
4AA#	4c#	4e]	[2f#
4BB	[4B	[4d	.
=17	=17	=17	=17
2.FF#;	4B]	4d]	2.f#;]
.	8A#L	8c#L	.
.	8G#J	8BJ	.
.	4A#;	4c#;	.
==	==	==	==
*-	*-	*-	*-
!!!hum2abc: -Q ''
!!!title: @{PC#}. @{OTL@@DE}
!!!YOR1: 371 vierstimmige Choralges&auml;nge von Johann Sebastian Bach, 
!!!YOR2: 4th ed. by Alfred D&ouml;rffel (Leipzig: Breitkopf und H&auml;rtel, 
!!!YOR2: c.1875). 178 pp. Plate "V.A.10".  reprint: J.S. Bach, 371 Four-Part 
!!!YOR4: Chorales (New York: Associated Music Publishers, Inc., c.1940).
!!!SMS: B&H, 4th ed, Alfred D&ouml;rffel, c.1875, plate V.A.10
!!!EED:  Craig Stuart Sapp
!!!EEV:  2009/05/22
